;Generated by Cura LulzBot Edition GCodeWriter Version: 2.6.66
;FLAVOR:RepRap
;TIME:1647
;Filament used: 0.30397m
;Layer height: 0.14
;Generated with Cura_SteamEngine 2.6.66
;This G-Code has been generated specifically for the LulzBot Mini with standard extruder
G26 ; clear potential 'probe fail' condition
G21 ; set units to Millimetres
M107 ; disable fans
G90 ; absolute positioning
M82 ; set extruder to absolute mode
G92 E0 ; set extruder position to 0
M140 S60 ; start bed heating up
G28 ; home all axes
G0 X0 Y187 Z156 F200 ; move away from endstops
M109 R140 ;
G1 E-30 F75 ; retract filament
M109 R140 ; wait for extruder to reach wiping temp
G1 X45 Y173 F11520 ; move above wiper pad
G1 Z0 F1200 ; push nozzle into wiper
G1 X42 Y173 Z-.5 F4000             ; wiping
G1 X52 Y171 Z-.5 F4000             ; wiping
G1 X42 Y173 Z0 F4000               ; wiping
G1 X52 Y171 F4000                  ; wiping
G1 X42 Y173 F4000                  ; wiping
G1 X52 Y171 F4000                  ; wiping
G1 X42 Y173 F4000                  ; wiping
G1 X52 Y171 F4000                  ; wiping
G1 X57 Y173 F4000                  ; wiping
G1 X77 Y171 F4000                  ; wiping
G1 X57 Y173 F4000                  ; wiping
G1 X77 Y171 F4000                  ; wiping
G1 X57 Y173 F4000                  ; wiping
G1 X87 Y171 F4000                  ; wiping
G1 X77 Y173 F4000                  ; wiping
G1 X97 Y171 F4000                  ; wiping
G1 X77 Y173 F4000                  ; wiping
G1 X97 Y171 F4000                  ; wiping
G1 X77 Y173 F4000                  ; wiping
G1 X97 Y171 F4000                  ; wiping
G1 X107 Y173 F4000                 ; wiping
G1 X97 Y171 F4000                  ; wiping
G1 X107 Y173 F4000                 ; wiping
G1 X97 Y171 F4000                  ; wiping
G1 X107 Y173 F4000                 ; wiping
G1 X112 Y171 Z-0.5 F1000           ; wiping
G1 Z10 ; raise extruder
G28 X0 Y0 ; home X and Y
G0 X0 Y187 F200 ; move away from endstops
M109 R140 ; wait for extruder to reach probe temp
M204 S300 ; set probing acceleration
G29 ; start auto-leveling sequence
M204 S2000 ; restore standard acceleration
G28 X0 Y0 ; re-home to account for build variance of earlier mini builds
G0 X0 Y187 F200 ; move away from endstops
G0 Y152 F4000 ; move in front of wiper pad
G4 S1 ; pause
M400 ; wait for moves to finish
M117 Heating... ; progress indicator message on LCD
M109 R195 ; wait for extruder to reach printing temp
M190 S60 ; wait for bed to reach printing temp
G1 Z2 E0 F75 ; prime tiny bit of filament into the nozzle
M117 Mini Printing... ; progress indicator message on LCD

M221 S100
;LAYER_COUNT:158
;LAYER:0
M107
G0 F2625 X38.757 Y24.576 Z0.424
G0 X38.463 Y25.038
;TYPE:SKIRT
G1 F900 X38.757 Y24.576 E0.01824
G1 X39.115 Y24.161 E0.0365
G1 X39.598 Y23.753 E0.05756
G1 X40.268 Y23.278 E0.08492
G1 X40.737 Y22.995 E0.10316
G1 X41.41 Y22.73 E0.12726
G1 X41.733 Y22.638 E0.13844
G1 X42.269 Y22.527 E0.15668
G1 X42.583 Y22.499 E0.16718
G1 X44.003 Y22.432 E0.21453
G1 X44.2 Y22.428 E0.22109
G1 X52.042 Y22.47 E0.48232
G1 X52.588 Y22.513 E0.50056
G1 X53.307 Y22.697 E0.52528
G1 X53.891 Y22.91 E0.54599
G1 X54.39 Y23.135 E0.56422
G1 X54.905 Y23.47 E0.58469
G1 X55.4 Y23.854 E0.60556
G1 X55.806 Y24.22 E0.62376
G1 X56.156 Y24.642 E0.64203
G1 X56.309 Y24.875 E0.65131
G1 X59.997 Y30.969 E0.88858
G1 X63.071 Y35.453 E1.06968
G1 X66.399 Y39.762 E1.25104
G1 X69.973 Y43.888 E1.43287
G1 X73.748 Y47.776 E1.61338
G1 X77.765 Y51.47 E1.79517
G1 X81.975 Y54.924 E1.97656
G1 X86.374 Y58.135 E2.15798
G1 X90.941 Y61.088 E2.33914
G1 X95.675 Y63.782 E2.52057
G1 X100.794 Y66.327 E2.711
G1 X101.265 Y66.606 E2.72924
G1 X101.527 Y66.805 E2.74019
G1 X102.16 Y67.333 E2.76765
G1 X102.554 Y67.714 E2.78591
G1 X102.888 Y68.147 E2.80412
G1 X103.161 Y68.639 E2.82287
G1 X103.526 Y69.428 E2.85183
G1 X103.719 Y69.94 E2.87005
G1 X103.836 Y70.475 E2.88829
G1 X103.873 Y70.99 E2.90549
G1 X103.91 Y82.454 E3.28737
G1 X103.842 Y83.176 E3.31152
G1 X103.741 Y83.7 E3.3293
G1 X103.599 Y84.228 E3.34751
G1 X103.261 Y84.942 E3.37382
G1 X102.814 Y85.675 E3.40242
G1 X102.495 Y86.121 E3.42069
G1 X101.985 Y86.627 E3.44462
G1 X101.679 Y86.877 E3.45778
G1 X101.171 Y87.227 E3.47833
G1 X96.929 Y89.658 E3.64119
G1 X92.363 Y92.59 E3.82194
G1 X87.92 Y95.811 E4.00474
G1 X86.292 Y97.084 E4.07358
G1 X85.838 Y97.389 E4.0918
G1 X85.094 Y97.711 E4.11881
G1 X79.109 Y99.57 E4.32756
G1 X78.576 Y99.694 E4.34579
G1 X77.998 Y99.739 E4.3651
G1 X70.876 Y99.74 E4.60234
G1 X70.33 Y99.7 E4.62058
G1 X69.795 Y99.581 E4.63883
G1 X69.515 Y99.485 E4.64869
G1 X65.874 Y98.068 E4.77884
G1 X60.702 Y96.323 E4.96066
G1 X55.442 Y94.874 E5.1424
G1 X52.771 Y94.257 E5.23371
G1 X50.16 Y93.735 E5.32241
G1 X44.842 Y92.895 E5.50175
G1 X44.309 Y92.77 E5.51998
G1 X43.8 Y92.57 E5.5382
G1 X43.325 Y92.297 E5.55645
G1 X42.896 Y91.958 E5.57466
G1 X42.52 Y91.56 E5.5929
G1 X42.206 Y91.111 E5.61115
G1 X41.961 Y90.622 E5.62937
G1 X41.789 Y90.102 E5.64762
G1 X41.695 Y89.563 E5.66584
G1 X41.677 Y89.198 E5.67802
G1 X41.667 Y83.5 E5.86782
G1 X41.507 Y78.019 E6.05047
G1 X41.062 Y72.669 E6.2293
G1 X41.051 Y72.222 E6.24419
G1 X41.207 Y67.912 E6.38785
G1 X41.143 Y62.447 E6.56991
G1 X40.773 Y57.032 E6.7507
G1 X40.093 Y51.613 E6.93263
G1 X39.107 Y46.238 E7.11466
G1 X38.515 Y43.638 E7.20348
G1 X37.645 Y40.216 E7.32109
G1 X37.549 Y39.677 E7.33933
G1 X37.529 Y39.275 E7.35274
G1 X37.583 Y27.603 E7.74154
G1 X37.626 Y27.057 E7.75978
G1 X37.747 Y26.523 E7.77802
G1 X38.029 Y25.846 E7.80245
G1 X38.463 Y25.038 E7.833
G0 F2625 X38.904 Y25.274
G1 F900 X39.179 Y24.846 E7.84995
G1 X39.519 Y24.465 E7.86696
G1 X39.887 Y24.161 E7.88286
G1 X40.557 Y23.686 E7.91022
G1 X40.995 Y23.425 E7.9272
G1 X41.547 Y23.211 E7.94692
G1 X41.87 Y23.119 E7.95811
G1 X42.607 Y22.999 E7.98298
G1 X44.027 Y22.932 E8.03034
G1 X44.197 Y22.928 E8.036
G1 X52.039 Y22.97 E8.29722
G1 X52.547 Y23.013 E8.31421
G1 X53.136 Y23.167 E8.33449
G1 X53.72 Y23.38 E8.35519
G1 X54.183 Y23.591 E8.37214
G1 X54.598 Y23.865 E8.38871
G1 X55.093 Y24.249 E8.40957
G1 X55.47 Y24.592 E8.42655
G1 X55.881 Y25.134 E8.44921
G1 X59.567 Y31.225 E8.68636
G1 X62.679 Y35.764 E8.86968
G1 X66.011 Y40.079 E9.05128
G1 X69.59 Y44.21 E9.23335
G1 X73.413 Y48.147 E9.41615
G1 X77.434 Y51.846 E9.59814
G1 X81.67 Y55.321 E9.78065
G1 X86.085 Y58.543 E9.96271
G1 X90.674 Y61.51 E10.14474
G1 X95.45 Y64.229 E10.3278
G1 X100.572 Y66.775 E10.51834
G1 X101.207 Y67.189 E10.54359
G1 X101.84 Y67.717 E10.57104
G1 X102.204 Y68.073 E10.588
G1 X102.509 Y68.482 E10.605
G1 X102.708 Y68.848 E10.61888
G1 X103.073 Y69.637 E10.64783
G1 X103.25 Y70.115 E10.66481
G1 X103.35 Y70.615 E10.6818
G1 X103.373 Y70.992 E10.69438
G1 X103.41 Y82.456 E11.07625
G1 X103.351 Y83.081 E11.09716
G1 X103.25 Y83.605 E11.11494
G1 X103.115 Y84.096 E11.1319
G1 X102.834 Y84.682 E11.15355
G1 X102.387 Y85.415 E11.18215
G1 X102.088 Y85.828 E11.19913
G1 X101.668 Y86.24 E11.21873
G1 X101.362 Y86.49 E11.23189
G1 X100.922 Y86.793 E11.24969
G1 X96.688 Y89.219 E11.41223
G1 X92.064 Y92.189 E11.5953
G1 X87.627 Y95.405 E11.77783
G1 X85.984 Y96.69 E11.84731
G1 X85.56 Y96.971 E11.86426
G1 X84.946 Y97.234 E11.88651
G1 X78.961 Y99.093 E12.09527
G1 X78.464 Y99.205 E12.11224
G1 X77.997 Y99.239 E12.12783
G1 X70.875 Y99.24 E12.36507
G1 X70.368 Y99.2 E12.38201
G1 X69.696 Y99.019 E12.40519
G1 X66.057 Y97.602 E12.53528
G1 X60.837 Y95.842 E12.71877
G1 X55.566 Y94.39 E12.90089
G1 X52.884 Y93.77 E12.99259
G1 X50.238 Y93.241 E13.08247
G1 X44.92 Y92.401 E13.26181
G1 X44.424 Y92.283 E13.27879
G1 X43.954 Y92.088 E13.29574
G1 X43.519 Y91.822 E13.31273
G1 X43.131 Y91.491 E13.32972
G1 X42.8 Y91.104 E13.34668
G1 X42.533 Y90.67 E13.36365
G1 X42.338 Y90.2 E13.3806
G1 X42.218 Y89.705 E13.39757
G1 X42.177 Y89.197 E13.41455
G1 X42.167 Y83.521 E13.60362
G1 X42.005 Y77.981 E13.78823
G1 X41.56 Y72.628 E13.96716
G1 X41.551 Y72.241 E13.98005
G1 X41.707 Y67.925 E14.12391
G1 X41.643 Y62.425 E14.30713
G1 X41.271 Y56.989 E14.48863
G1 X40.589 Y51.549 E14.67126
G1 X39.594 Y46.131 E14.85475
G1 X39.001 Y43.525 E14.94378
G1 X38.129 Y40.093 E15.06173
G1 X38.043 Y39.591 E15.0787
G1 X38.029 Y39.277 E15.08917
G1 X38.083 Y27.605 E15.47797
G1 X38.125 Y27.097 E15.49495
G1 X38.246 Y26.602 E15.51192
G1 X38.47 Y26.082 E15.53078
G1 X38.904 Y25.274 E15.56134
G0 F2625 X41.916 Y27.011
;TYPE:SUPPORT
G1 F900 X41.938 Y26.982 E15.56255
G1 X42.061 Y26.864 E15.56823
G1 X42.122 Y26.81 E15.57094
G1 X42.334 Y26.659 E15.57961
G1 X42.519 Y26.564 E15.58654
G1 X42.611 Y26.527 E15.58984
G1 X42.85 Y26.463 E15.59808
G1 X43.212 Y26.428 E15.6102
G1 X51.655 Y26.428 E15.89144
G1 X51.979 Y26.457 E15.90227
G1 X51.999 Y26.463 E15.90297
G1 X52.3 Y26.546 E15.91337
G1 X52.309 Y26.549 E15.91368
G1 X52.581 Y26.694 E15.92395
G1 X52.7 Y26.778 E15.9288
G1 X52.774 Y26.834 E15.93189
G1 X52.924 Y26.98 E15.93887
G1 X52.958 Y27.021 E15.94064
G1 X53.121 Y27.252 E15.95006
G1 X53.256 Y27.534 E15.96047
G1 X53.313 Y27.752 E15.96798
G1 X53.324 Y27.818 E15.97021
G1 X53.353 Y28.119 E15.98028
G1 X53.353 Y39.083 E16.3455
G1 X53.327 Y39.384 E16.35556
G1 X53.253 Y39.669 E16.36537
G1 X53.139 Y39.916 E16.37443
G1 X53.121 Y39.943 E16.37551
G1 X52.95 Y40.182 E16.3853
G1 X52.729 Y40.399 E16.39562
G1 X52.505 Y40.55 E16.40461
G1 X52.501 Y40.553 E16.40478
G1 X52.341 Y40.636 E16.41079
G1 X52.246 Y40.671 E16.41416
G1 X51.99 Y40.74 E16.42299
G1 X51.923 Y40.752 E16.42526
G1 X51.697 Y40.772 E16.43281
G1 X51.676 Y40.772 E16.43351
G1 X43.184 Y40.771 E16.71639
G1 X42.92 Y40.749 E16.72521
G1 X42.832 Y40.735 E16.72818
G1 X42.706 Y40.706 E16.73249
G1 X42.665 Y40.69 E16.73395
G1 X42.389 Y40.569 E16.74399
G1 X42.34 Y40.544 E16.74582
G1 X42.238 Y40.48 E16.74983
G1 X42.189 Y40.442 E16.7519
G1 X41.934 Y40.217 E16.76323
G1 X41.933 Y40.216 E16.76327
G1 X41.832 Y40.082 E16.76886
G1 X41.772 Y39.994 E16.77241
G1 X41.687 Y39.85 E16.77798
G1 X41.589 Y39.618 E16.78637
G1 X41.565 Y39.526 E16.78954
G1 X41.526 Y39.359 E16.79525
G1 X41.508 Y39.092 E16.80416
G1 X41.507 Y28.105 E17.17014
G1 X41.507 Y28.092 E17.17058
G1 X41.53 Y27.833 E17.17924
G1 X41.546 Y27.757 E17.18183
G1 X41.606 Y27.533 E17.18955
G1 X41.743 Y27.247 E17.20011
G1 X41.916 Y27.011 E17.20986
G0 F2625 X42.924 Y26.656
G1 F900 X51.952 Y26.656 E17.51059
G0 F2625 X51.646 Y26.628
G1 F900 X51.646 Y40.571 E17.97503
G0 F2625 X52.846 Y39.984
G1 F900 X42.007 Y39.984 E18.33608
G0 F2625 X43.316 Y40.571
G1 F900 X43.316 Y26.628 E18.80053
G0 F2625 X44.982 Y26.628
G1 F900 X44.982 Y40.571 E19.26498
G0 F2625 X46.648 Y40.571
G1 F900 X46.648 Y26.628 E19.72942
G0 F2625 X48.314 Y26.628
G1 F900 X48.314 Y40.571 E20.19387
G0 F2625 X49.98 Y40.571
G1 F900 X49.98 Y26.628 E20.65832
G0 F2625 X53.153 Y28.322
G1 F900 X41.707 Y28.322 E21.03959
G0 F2625 X41.707 Y29.988
G1 F900 X53.153 Y29.988 E21.42086
G0 F2625 X53.153 Y31.654
G1 F900 X41.707 Y31.654 E21.80213
G0 F2625 X41.707 Y33.32
G1 F900 X53.153 Y33.32 E22.1834
G0 F2625 X53.153 Y34.986
G1 F900 X41.707 Y34.986 E22.56467
G0 F2625 X41.707 Y36.652
G1 F900 X53.153 Y36.652 E22.94594
G0 F2625 X53.153 Y38.318
G1 F900 X41.707 Y38.318 E23.32721
G0 F2625 X88.286 Y70.572
G1 F900 X88.308 Y70.531 E23.32876
G1 X88.495 Y70.279 E23.33921
G1 X88.528 Y70.243 E23.34084
G1 X88.653 Y70.119 E23.3467
G1 X88.671 Y70.105 E23.34746
G1 X88.913 Y69.935 E23.35731
G1 X88.962 Y69.907 E23.35919
G1 X89.168 Y69.811 E23.36676
G1 X89.178 Y69.807 E23.36712
G1 X89.468 Y69.728 E23.37714
G1 X89.731 Y69.711 E23.38591
G1 X98.267 Y69.71 E23.67025
G1 X98.548 Y69.734 E23.67965
G1 X98.825 Y69.811 E23.68922
G1 X98.954 Y69.865 E23.69388
G1 X99.079 Y69.931 E23.69859
G1 X99.086 Y69.935 E23.69886
G1 X99.337 Y70.113 E23.70911
G1 X99.524 Y70.296 E23.71782
G1 X99.662 Y70.489 E23.72573
G1 X99.692 Y70.538 E23.72764
G1 X99.818 Y70.809 E23.7376
G1 X99.891 Y71.067 E23.74653
G1 X99.9 Y71.137 E23.74888
G1 X99.923 Y71.367 E23.75658
G1 X99.923 Y71.387 E23.75724
G1 X99.922 Y82.377 E24.12333
G1 X99.922 Y82.426 E24.12496
G1 X99.911 Y82.564 E24.12957
G1 X99.897 Y82.674 E24.13326
G1 X99.824 Y82.955 E24.14293
G1 X99.71 Y83.198 E24.15187
G1 X99.691 Y83.23 E24.15311
G1 X99.504 Y83.489 E24.16375
G1 X99.332 Y83.658 E24.17179
G1 X99.109 Y83.817 E24.18091
G1 X99.082 Y83.833 E24.18196
G1 X98.847 Y83.944 E24.19061
G1 X98.773 Y83.969 E24.19321
G1 X98.569 Y84.022 E24.20024
G1 X98.229 Y84.054 E24.21161
G1 X89.751 Y84.053 E24.49402
G1 X89.708 Y84.053 E24.49545
G1 X89.53 Y84.039 E24.5014
G1 X89.388 Y84.013 E24.50621
G1 X89.27 Y83.983 E24.51026
G1 X89.188 Y83.955 E24.51315
G1 X88.983 Y83.865 E24.5206
G1 X88.957 Y83.851 E24.52159
G1 X88.752 Y83.722 E24.52966
G1 X88.553 Y83.546 E24.53851
G1 X88.394 Y83.361 E24.54663
G1 X88.38 Y83.34 E24.54747
G1 X88.251 Y83.122 E24.55591
G1 X88.172 Y82.934 E24.5627
G1 X88.124 Y82.763 E24.56862
G1 X88.115 Y82.725 E24.56992
G1 X88.114 Y82.725 E24.56995
G1 X88.095 Y82.625 E24.57334
G1 X88.078 Y82.392 E24.58113
G1 X88.077 Y71.398 E24.94734
G1 X88.111 Y71.066 E24.95846
G1 X88.179 Y70.809 E24.96731
G1 X88.21 Y70.733 E24.97005
G1 X88.286 Y70.572 E24.97598
G0 F2625 X88.298 Y71.202
G1 F900 X88.298 Y82.619 E25.35628
G0 F2625 X88.604 Y83.3
G1 F900 X99.394 Y83.3 E25.7157
G0 F2625 X98.294 Y83.847
G1 F900 X98.294 Y69.913 E26.17985
G0 F2625 X98.655 Y69.972
G1 F900 X89.339 Y69.972 E26.49017
G0 F2625 X89.964 Y69.91
G1 F900 X89.964 Y83.853 E26.95461
G0 F2625 X91.63 Y83.853
G1 F900 X91.63 Y69.91 E27.41906
G0 F2625 X93.296 Y69.91
G1 F900 X93.296 Y83.853 E27.8835
G0 F2625 X94.962 Y83.853
G1 F900 X94.962 Y69.91 E28.34795
G0 F2625 X96.628 Y69.91
G1 F900 X96.628 Y83.853 E28.8124
G0 F2625 X99.722 Y81.634
G1 F900 X88.277 Y81.634 E29.19363
G0 F2625 X88.277 Y79.968
G1 F900 X99.722 Y79.968 E29.57487
G0 F2625 X99.722 Y78.302
G1 F900 X88.277 Y78.302 E29.95611
G0 F2625 X88.277 Y76.636
G1 F900 X99.722 Y76.636 E30.33735
G0 F2625 X99.722 Y74.97
G1 F900 X88.277 Y74.97 E30.71858
G0 F2625 X88.277 Y73.304
G1 F900 X99.722 Y73.304 E31.09982
G0 F2625 X99.722 Y71.638
G1 F900 X88.277 Y71.638 E31.48106
G1 F1200 E29.98106
G0 F2625 X77.516 Y69.062
G0 X53.977 Y69.324
G0 X52.806 Y68.505
G0 X52.727 Y68.519
G0 X52.825 Y68.502
;TYPE:WALL-INNER
G1 F1200 E31.48106
G1 F900 X52.395 Y69.117 E31.50605
G1 X52.252 Y69.321 E31.51435
G1 X52.048 Y69.178 E31.51972
G1 X49.907 Y67.68 E31.60676
G1 X46.465 Y72.594 E31.80661
G1 X46.036 Y72.295 E31.82402
G1 X45.832 Y72.152 E31.83232
G1 X45.975 Y71.948 E31.83769
G1 X49.272 Y67.237 E32.02923
G1 X46.927 Y65.594 E32.1246
G1 X47.358 Y64.979 E32.14962
G1 X47.501 Y64.774 E32.15795
G1 X47.705 Y64.917 E32.1633
G1 X52.825 Y68.502 E32.3715
G0 F2625 X52.702 Y67.806
;TYPE:WALL-OUTER
G1 F900 X55.361 Y64.007 E32.52597
G1 X56.181 Y64.581 E32.55931
G1 X52.518 Y69.814 E32.77208
G1 X52.375 Y70.018 E32.78038
G1 X52.171 Y69.875 E32.78575
G1 X50.03 Y68.376 E32.87281
G1 X46.588 Y73.291 E33.07268
G1 X45.339 Y72.418 E33.12344
G1 X45.135 Y72.275 E33.13174
G1 X45.278 Y72.071 E33.13711
G1 X48.576 Y67.36 E33.32866
G1 X46.23 Y65.717 E33.42407
G1 X50.036 Y60.28 E33.64514
G1 X50.651 Y60.71 E33.67014
G1 X50.856 Y60.853 E33.67846
G1 X50.713 Y61.057 E33.68382
G1 X48.196 Y64.651 E33.82998
G1 X52.702 Y67.806 E34.01321
G0 F2625 X52.845 Y67.602
G0 X52.359 Y68.296
G0 X51.784 Y68.047
;TYPE:SKIN
G1 F900 X52.422 Y68.685 E34.04327
G0 F2625 X51.662 Y68.633
G1 F900 X49.424 Y66.395 E34.14869
G1 X49.336 Y66.307
G0 F2625 X49.311 Y66.989
G1 F900 X47.494 Y65.172 E34.23429
G1 X47.406 Y65.084
G0 F2625 X49.551 Y67.229
G0 X49.668 Y67.345
G1 F900 X49.376 Y67.761 E34.24526
G1 X49.085 Y68.177 E34.25622
G1 X48.794 Y68.593 E34.26718
G1 X48.502 Y69.009 E34.27818
G1 X48.211 Y69.425 E34.28914
G1 X47.92 Y69.84 E34.30008
G1 X47.629 Y70.256 E34.31104
G1 X47.338 Y70.672 E34.322
G1 X47.046 Y71.088 E34.33293
G1 X46.755 Y71.504 E34.34386
G1 X46.464 Y71.92 E34.35475
